assets/img/space__slide1-2.svg

<svg xmlns="http://www.w3.org/2000/svg" viewBox="0 0 66 66" enable-background="new 0 0 66 66"><style type="text/css">.st0{fill:#262626;}</style><path class="st0" d="M59.3 6.4h-52.6c-2.5 0-4.6 2.1-4.6 4.6v34.8c0 2.6 2.1 4.6 4.6 4.6h20.8c0 1.5-.2 3.6-.8 5.1h-3.6c-.8 0-1.5.7-1.5 1.5 0 .9.7 1.5 1.5 1.5h19.9c.8 0 1.5-.7 1.5-1.5s-.7-1.5-1.5-1.5h-3.6c-.7-1.5-.8-3.6-.8-5.1h20.8c2.5 0 4.6-2.1 4.6-4.6v-34.8c-.1-2.5-2.2-4.6-4.7-4.6zm2.2 39.4c0 1.2-1 2.2-2.2 2.2h-52.6c-1.2 0-2.2-1-2.2-2.2v-3h57v3zm-57-5.4v-29.4c0-1.2 1-2.2 2.2-2.2h52.6c1.2 0 2.2 1 2.2 2.2v29.3l-57 .1zm0 0"/><path class="st0" d="M29.2 31.5c-1.1 0-2-.9-2-2.2v-9.6c0-1.3.8-2.2 2-2.2.4 0 .8.1 1.2.3l9 4.9c.8.4 1.2 1.1 1.2 1.8s-.4 1.4-1.2 1.8l-9 4.9c-.4.1-.8.3-1.2.3zm.2-11.8v9.5l8.7-4.8-8.7-4.7zM44.6 35.7h-22.6c-1.6 0-2.9-1.4-2.9-3.1v-16.3c0-1.7 1.3-3.1 2.9-3.1h22.6c1.6 0 2.9 1.4 2.9 3.1v16.3c0 1.7-1.3 3.1-2.9 3.1zm-22.6-20.2c-.2 0-.5.3-.5.7v16.3c0 .4.3.7.5.7h22.6c.2 0 .5-.3.5-.7v-16.2c0-.4-.3-.7-.5-.7h-22.6z"/></svg>

<?xml version="1.0" encoding="utf-8"?>
<!-- Generator: Adobe Illustrator 19.2.0, SVG Export Plug-In . SVG Version: 6.00 Build 0)  -->
<svg version="1.1" id="Layer_1" xmlns="http://www.w3.org/2000/svg" xmlns:xlink="http://www.w3.org/1999/xlink" x="0px" y="0px"
	 viewBox="0 0 66 66" style="enable-background:new 0 0 66 66;" xml:space="preserve">
<style type="text/css">
	.st0{fill:#262626;}
</style>
<g>
	<g>
		<path class="st0" d="M59.3,6.4H6.7c-2.5,0-4.6,2.1-4.6,4.6v34.8c0,2.6,2.1,4.6,4.6,4.6h20.8c0,1.5-0.2,3.6-0.8,5.1h-3.6
			c-0.8,0-1.5,0.7-1.5,1.5c0,0.9,0.7,1.5,1.5,1.5h19.9c0.8,0,1.5-0.7,1.5-1.5c0-0.8-0.7-1.5-1.5-1.5h-3.6c-0.7-1.5-0.8-3.6-0.8-5.1
			h20.8c2.5,0,4.6-2.1,4.6-4.6V11C63.9,8.5,61.8,6.4,59.3,6.4L59.3,6.4z M61.5,45.8c0,1.2-1,2.2-2.2,2.2H6.7c-1.2,0-2.2-1-2.2-2.2
			v-3h57L61.5,45.8L61.5,45.8z M4.5,40.4V11c0-1.2,1-2.2,2.2-2.2h52.6c1.2,0,2.2,1,2.2,2.2v29.3L4.5,40.4L4.5,40.4z M4.5,40.4"/>
	</g>
	<g>
		<path class="st0" d="M29.2,31.5c-1.1,0-2-0.9-2-2.2v-9.6c0-1.3,0.8-2.2,2-2.2c0.4,0,0.8,0.1,1.2,0.3l9,4.9
			c0.8,0.4,1.2,1.1,1.2,1.8s-0.4,1.4-1.2,1.8l-9,4.9C30,31.3,29.6,31.5,29.2,31.5z M29.4,19.7v9.5l8.7-4.8L29.4,19.7z"/>
	</g>
	<g>
		<path class="st0" d="M44.6,35.7H22c-1.6,0-2.9-1.4-2.9-3.1V16.3c0-1.7,1.3-3.1,2.9-3.1h22.6c1.6,0,2.9,1.4,2.9,3.1v16.3
			C47.5,34.3,46.2,35.7,44.6,35.7z M22,15.5c-0.2,0-0.5,0.3-0.5,0.7v16.3c0,0.4,0.3,0.7,0.5,0.7h22.6c0.2,0,0.5-0.3,0.5-0.7V16.3
			c0-0.4-0.3-0.7-0.5-0.7H22z"/>
	</g>
</g>
</svg>
